X: 60
U:~=!turn!
M:C
L:1/8
K:G aeolian
c | (A<d){/e}d>c d>cd<f | (A>F)c>F d>Fc>F | (A<d){/e}d>c d>cd>g | Tf>d {/d}(cB/A/) {/^F}G2 G :|
d | Tg>d(g<b) g>d(g<b) | Tf>c(f<a) Tf>c(f<a) | Tg>d(g<b) g>d(g<b) | Tf>d {/d}(cB/A/) {/^F}G2 G>d |


